X: 3024
T: Battle Swing
R: jig
M: 6/8
K: Aminor
|:AcA e2e|dcB dcB|AcA e2e|dcB B3|
AcA e2e|dcB dcB|Aed cBA|BA^G A3:|
|:Ace a2a|ged edc|Ace a2a|ged e3|
Ace a2a|ged edc|Aed cBA|BA^G A3:|

